X: 1134
T: Miss Rattray
M: 4/4
L: 1/8
R: reel
K: D Major
|: (3A/B/c/ | 
d2 AG FDDF | GEEA FDDA | d2 AG FDDg |[1 fdec d2 d :|[2 fdec d2 dA ||
defg affa | beed cAAc |[1 defg affa | beec d2 AB :|[2 BGGB FDDg | fdec d2 d |]
